X:1
T:106 - O Desejado
T:Letra: Daniel Webster Whittle (1840-1901)
T:Trad.: Salomão Luiz Ginsburg (1867-1927)
T:Música: James McGranahan (1840-1907)
M:4/4
L:1/8
Q:1/4=90
K:F
V:1
"F"A2- AB "C7"AG DE | "F"F2 C3 z3 | c2- cd "C7"cB FG | "F"A6 z2 | "Dm"A2- AB "A"AA =B^c | "Dm"d2 A3 z3 | "G7"G2- GA GG A=B | "C"c6 || "C7"d2 | "F"c2- cd "C7"cB FG | "F"A2 c4 "Bb"d2 | "F"c2- cd "C7"cB FG | "F"A4 zF Ac | f2-fe dc BA | "Gm"G2 B4 d2 | "C7"e2- ed cd cE | "F"F6 z2 |]
w: 1.~Vem,_ ó Cris-to de-se-ja-do! Vem_ de-pres-sa, Re-den-tor! Sal_veo di-aes-plen-do-ro-so Do_ re-gres-so teu, Se-nhor! Vem, es_pe-ran-ça des-te mun-do!    Vem o_ mi-lê-nioi-nau-gu-rar!    Vem teus re-mi_dos des-per-tar do so-no!    Oh, vem_ teu rei-no con-fir-mar! 
w: 2.~Vem,_ ó Cris-to de-se-ja-do! Vem_ o mun-do li-ber-tar Des_sas do-res em que ge-me! Teu_ po-der vem de-mons-trar!  
w: 3.~Vem_ ó Cris-to de-se-ja-do! Vem_ o mun-do do-mi-nar, Dis_pen-san-doa-mor, jus-ti-ça! Vem_ teu rei-no di-la-tar!  
w: 4.~Vem,_ ó Cris-to de-se-ja-do, Tu_a gló-ria re-ve-lar! Vem,_ Se-nhor Je-sus, nos a-res Pa_ra nos ar-re-ba-tar!
W: 
W:
W: 1. Vem, ó Cristo desejado!
W: Vem depressa, Redentor!
W: Salve o dia esplendoroso
W: Do regresso teu, Senhor!
W: 
W:    (Estribilho)
W:    Vem, esperança deste mundo!
W:    Vem o milênio inaugurar!
W:    Vem teus remidos despertar do sono!
W:    Oh, vem teu reino confirmar!
W:         
W: 2. Vem, ó Cristo desejado!
W: Vem o mundo libertar
W: Dessas dores em que geme!
W: Teu poder vem demonstrar!
W: 
W:
W:
W: 3. Vem ó Cristo desejado!
W: Vem o mundo dominar,
W: Dispensando amor, justiça!
W: Vem teu reino dilatar!
W: 
W: 4. Vem, ó Cristo desejado,
W: Tua glória revelar!
W: Vem, Senhor Jesus, nos ares
W: Para nos arrebatar!
W: 
W: 





